X: 3018
M: 3/4
L: 1/8
K: F
|:\
f3 g e2 | f2 fg a2 | g2 a2 f2 | gf ed c2 |\
f3 g e2 | f2 fg a2 | g2 ba gf | e6 ::\
f3 e f2 | d2 de f2 | c2 d2 B2 | cB AG F2 |
f3 e f2 | d2 de f2 | c2 d2 B2 | cB AG F2 |\


